X: 113
T: Polska efter Olof L\"ofgren i Sveg
O: H\"arjedalen
R: sen-polska
S: http://folksweden.com/files/113-Polska_efter_Olof_Lofgren_i_Sveg.pdf (Tim Rued)
Z: 2021 John Chambers <jc:trillian.mit.edu> 2021-9-2
M: 3/4
L: 1/8
K: F
|:\
(3c=Bc (3fef (3gfg | ac c<b a2 | ge ca ge | (3fef af cA || F2 (3fef (3gfg |
ac c<b a2 | ge ca ge | ca f3 z :: ca ac (3cBA | Bg gB (3BAG | (3FGA (3BGB (3AFA |
(3GEG (3FAc f2 | ca ac (3cBA || Bg gB (3BAG | (3FGA (3BGB (3AGF | (3EGE F3 z :|
